X:1
T:Polons frn Sexdrega
T:(Evighetspolskan)
R:Polska
Z:Patrik Mnsson, 2008-11-15
O:Sexdrega, Vstergtland
S:efter Anders Larsson
B:Sexdregasamlingen del 2 nr 55
B:http://www.smus.se/earkiv/fmk/browselarge.phplang=sw&katalogid=Ma12b&bildnr=00011
B:http://www.smus.se/earkiv/fmk/browselarge.phplang=sw&katalogid=Ma12bx&bildnr=00053
M:3/4
L:1/8
K:D
N: Frn allspelsltarna frn Harpstmman i Lund 2008.
N: Punkteringen i sistareprisen verkar inte finnas med i originalnoterna.
|: df ed e2 | eg fe f2 | fa gf ed | e2 A4 |
df ed e2 | eg fe f2 | fa gf ed | ed1/2c1/2 d4 :|
|: aa aa ba | a>a aa ba | a>a ba gf | e2 A4 :|
